badges/snipd-dark.svg

<svg width="95" height="40" viewBox="0 0 95 40" fill="none" xmlns="http://www.w3.org/2000/svg">
<rect x="0.5" y="0.5" width="94" height="39" rx="4.5" fill="black"/>
<path d="M10.5247 29.4753C8.68315 27.6337 8 24.6337 8 20C8 15.3663 8.68315 12.3662 10.5247 10.5247C12.3662 8.68315 15.3663 8 20 8C24.6337 8 27.6337 8.68315 29.4753 10.5247C31.3168 12.3662 32 15.3663 32 20C32 24.6337 31.3168 27.6337 29.4753 29.4753C27.6337 31.3168 24.6337 32 20 32C15.3663 32 12.3662 31.3168 10.5247 29.4753Z" fill="url(#paint0_linear_101_7993)"/>
<path d="M24.8955 15.1045C23.8842 14.1303 22.5089 13.5312 20.9938 13.5312C17.8872 13.5312 15.3688 16.0496 15.3688 19.1562C15.3688 20.6714 15.9678 22.0466 16.942 23.058L24.8955 15.1045Z" fill="url(#paint1_linear_101_7993)"/>
<path d="M15.1045 24.8954C16.1159 25.8696 17.4911 26.4687 19.0063 26.4687C22.1129 26.4687 24.6313 23.9503 24.6313 20.8437C24.6313 19.3285 24.0322 17.9533 23.058 16.9419L15.1045 24.8954Z" fill="url(#paint2_linear_101_7993)"/>
<path d="M39.7486 14.5V8.31818H40.4972V13.8359H43.3707V14.5H39.7486ZM44.4332 14.5V9.86364H45.1456V14.5H44.4332ZM44.7955 9.09091C44.6566 9.09091 44.5369 9.04362 44.4363 8.94904C44.3377 8.85446 44.2884 8.74077 44.2884 8.60795C44.2884 8.47514 44.3377 8.36145 44.4363 8.26687C44.5369 8.17229 44.6566 8.125 44.7955 8.125C44.9343 8.125 45.053 8.17229 45.1516 8.26687C45.2522 8.36145 45.3026 8.47514 45.3026 8.60795C45.3026 8.74077 45.2522 8.85446 45.1516 8.94904C45.053 9.04362 44.9343 9.09091 44.7955 9.09091ZM49.7344 10.902L49.0945 11.0831C49.0543 10.9764 48.9949 10.8728 48.9164 10.7722C48.8399 10.6696 48.7353 10.585 48.6025 10.5186C48.4697 10.4522 48.2996 10.419 48.0924 10.419C47.8086 10.419 47.5722 10.4844 47.383 10.6152C47.1959 10.744 47.1023 10.908 47.1023 11.1072C47.1023 11.2843 47.1667 11.4242 47.2955 11.5268C47.4243 11.6294 47.6255 11.715 47.8992 11.7834L48.5874 11.9524C49.0019 12.053 49.3108 12.207 49.5141 12.4142C49.7173 12.6195 49.8189 12.8841 49.8189 13.2081C49.8189 13.4737 49.7425 13.7112 49.5895 13.9205C49.4386 14.1297 49.2273 14.2947 48.9557 14.4155C48.684 14.5362 48.3681 14.5966 48.0079 14.5966C47.535 14.5966 47.1436 14.494 46.8337 14.2887C46.5238 14.0835 46.3276 13.7836 46.2451 13.3892L46.9212 13.2202C46.9856 13.4697 47.1073 13.6568 47.2864 13.7816C47.4676 13.9064 47.704 13.9688 47.9958 13.9688C48.3278 13.9688 48.5914 13.8983 48.7866 13.7575C48.9838 13.6146 49.0824 13.4435 49.0824 13.2443C49.0824 13.0833 49.0261 12.9485 48.9134 12.8398C48.8007 12.7292 48.6276 12.6467 48.3942 12.5923L47.6215 12.4112C47.1969 12.3106 46.885 12.1547 46.6858 11.9434C46.4886 11.7301 46.39 11.4634 46.39 11.1435C46.39 10.8819 46.4634 10.6504 46.6103 10.4492C46.7592 10.248 46.9615 10.09 47.217 9.97532C47.4746 9.86062 47.7664 9.80327 48.0924 9.80327C48.5512 9.80327 48.9114 9.90388 49.173 10.1051C49.4366 10.3063 49.6237 10.572 49.7344 10.902ZM52.9076 9.86364V10.4673H50.5049V9.86364H52.9076ZM51.2052 8.75284H51.9175V13.1719C51.9175 13.3731 51.9467 13.524 52.0051 13.6246C52.0654 13.7232 52.1419 13.7897 52.2345 13.8239C52.329 13.8561 52.4287 13.8722 52.5333 13.8722C52.6118 13.8722 52.6762 13.8681 52.7265 13.8601C52.7768 13.85 52.817 13.842 52.8472 13.8359L52.9921 14.4759C52.9438 14.494 52.8764 14.5121 52.7899 14.5302C52.7033 14.5503 52.5937 14.5604 52.4608 14.5604C52.2596 14.5604 52.0624 14.5171 51.8692 14.4306C51.6781 14.344 51.5191 14.2122 51.3923 14.0352C51.2675 13.8581 51.2052 13.6347 51.2052 13.3651V8.75284ZM55.8732 14.5966C55.4265 14.5966 55.0411 14.498 54.7172 14.3008C54.3952 14.1016 54.1467 13.8239 53.9716 13.4677C53.7985 13.1095 53.712 12.6929 53.712 12.218C53.712 11.7431 53.7985 11.3246 53.9716 10.9624C54.1467 10.5981 54.3902 10.3144 54.7021 10.1112C55.016 9.90589 55.3822 9.80327 55.8008 9.80327C56.0423 9.80327 56.2807 9.84351 56.5162 9.92401C56.7516 10.0045 56.9659 10.1353 57.1591 10.3164C57.3523 10.4955 57.5062 10.733 57.6209 11.0288C57.7356 11.3246 57.793 11.6888 57.793 12.1214V12.4233H54.2191V11.8075H57.0685C57.0685 11.5459 57.0162 11.3125 56.9116 11.1072C56.8089 10.902 56.6621 10.74 56.4709 10.6213C56.2817 10.5025 56.0584 10.4432 55.8008 10.4432C55.517 10.4432 55.2715 10.5136 55.0643 10.6545C54.859 10.7933 54.7011 10.9744 54.5904 11.1978C54.4797 11.4212 54.4244 11.6606 54.4244 11.9162V12.3267C54.4244 12.6768 54.4847 12.9737 54.6055 13.2172C54.7282 13.4586 54.8983 13.6428 55.1156 13.7695C55.3329 13.8943 55.5855 13.9567 55.8732 13.9567C56.0604 13.9567 56.2294 13.9305 56.3803 13.8782C56.5333 13.8239 56.6651 13.7434 56.7757 13.6367C56.8864 13.5281 56.9719 13.3932 57.0323 13.2322L57.7205 13.4254C57.6481 13.6589 57.5263 13.8641 57.3553 14.0412C57.1842 14.2163 56.973 14.3531 56.7214 14.4517C56.4699 14.5483 56.1871 14.5966 55.8732 14.5966ZM59.589 11.7109V14.5H58.8766V9.86364H59.5648V10.5881H59.6252C59.7338 10.3526 59.8989 10.1635 60.1202 10.0206C60.3416 9.87571 60.6273 9.80327 60.9775 9.80327C61.2914 9.80327 61.5661 9.86766 61.8015 9.99645C62.0369 10.1232 62.2201 10.3164 62.3509 10.576C62.4817 10.8336 62.5471 11.1596 62.5471 11.554V14.5H61.8347V11.6023C61.8347 11.238 61.7401 10.9543 61.551 10.7511C61.3618 10.5458 61.1022 10.4432 60.7722 10.4432C60.5448 10.4432 60.3416 10.4925 60.1625 10.5911C59.9854 10.6897 59.8455 10.8336 59.7429 11.0227C59.6403 11.2119 59.589 11.4413 59.589 11.7109ZM68.1229 14.5966C67.7044 14.5966 67.3371 14.497 67.0212 14.2978C66.7073 14.0985 66.4618 13.8198 66.2847 13.4616C66.1096 13.1035 66.0221 12.6849 66.0221 12.206C66.0221 11.723 66.1096 11.3014 66.2847 10.9412C66.4618 10.581 66.7073 10.3013 67.0212 10.1021C67.3371 9.90288 67.7044 9.80327 68.1229 9.80327C68.5415 9.80327 68.9077 9.90288 69.2216 10.1021C69.5376 10.3013 69.7831 10.581 69.9581 10.9412C70.1352 11.3014 70.2238 11.723 70.2238 12.206C70.2238 12.6849 70.1352 13.1035 69.9581 13.4616C69.7831 13.8198 69.5376 14.0985 69.2216 14.2978C68.9077 14.497 68.5415 14.5966 68.1229 14.5966ZM68.1229 13.9567C68.4409 13.9567 68.7025 13.8752 68.9077 13.7122C69.113 13.5492 69.2649 13.3349 69.3635 13.0692C69.4621 12.8036 69.5114 12.5159 69.5114 12.206C69.5114 11.8961 69.4621 11.6073 69.3635 11.3397C69.2649 11.072 69.113 10.8557 68.9077 10.6907C68.7025 10.5257 68.4409 10.4432 68.1229 10.4432C67.805 10.4432 67.5434 10.5257 67.3381 10.6907C67.1329 10.8557 66.9809 11.072 66.8823 11.3397C66.7837 11.6073 66.7344 11.8961 66.7344 12.206C66.7344 12.5159 66.7837 12.8036 66.8823 13.0692C66.9809 13.3349 67.1329 13.5492 67.3381 13.7122C67.5434 13.8752 67.805 13.9567 68.1229 13.9567ZM72.0235 11.7109V14.5H71.3112V9.86364H71.9994V10.5881H72.0597C72.1684 10.3526 72.3334 10.1635 72.5548 10.0206C72.7761 9.87571 73.0619 9.80327 73.412 9.80327C73.7259 9.80327 74.0006 9.86766 74.2361 9.99645C74.4715 10.1232 74.6546 10.3164 74.7854 10.576C74.9162 10.8336 74.9816 11.1596 74.9816 11.554V14.5H74.2693V11.6023C74.2693 11.238 74.1747 10.9543 73.9855 10.7511C73.7964 10.5458 73.5368 10.4432 73.2068 10.4432C72.9794 10.4432 72.7761 10.4925 72.597 10.5911C72.42 10.6897 72.2801 10.8336 72.1775 11.0227C72.0748 11.2119 72.0235 11.4413 72.0235 11.7109Z" fill="white"/>
<path d="M46.5014 20.9545C46.4268 20.3248 46.1244 19.8359 45.5941 19.4879C45.0638 19.1399 44.4134 18.9659 43.6428 18.9659C43.0793 18.9659 42.5863 19.0571 42.1637 19.2393C41.7453 19.4216 41.418 19.6723 41.1818 19.9913C40.9498 20.3103 40.8338 20.6728 40.8338 21.0788C40.8338 21.4186 40.9146 21.7106 41.0762 21.9551C41.2419 22.1954 41.4532 22.3963 41.71 22.5579C41.9669 22.7153 42.2362 22.8458 42.5179 22.9494C42.7997 23.0488 43.0586 23.1296 43.2947 23.1918L44.5874 23.5398C44.9188 23.6268 45.2875 23.7469 45.6935 23.9002C46.1037 24.0535 46.4952 24.2627 46.8681 24.5279C47.2451 24.7889 47.5558 25.1245 47.8002 25.5346C48.0447 25.9448 48.1669 26.4482 48.1669 27.0447C48.1669 27.7325 47.9867 28.3539 47.6262 28.9091C47.2699 29.4643 46.7479 29.9055 46.0602 30.2328C45.3766 30.5601 44.5459 30.7237 43.5682 30.7237C42.6567 30.7237 41.8675 30.5766 41.2005 30.2825C40.5376 29.9883 40.0156 29.5782 39.6344 29.052C39.2574 28.5259 39.044 27.9148 38.9943 27.2188H40.5852C40.6267 27.6993 40.7882 28.0971 41.07 28.4119C41.3558 28.7227 41.7163 28.9547 42.1513 29.108C42.5904 29.2571 43.0627 29.3317 43.5682 29.3317C44.1565 29.3317 44.6847 29.2364 45.1529 29.0458C45.621 28.8511 45.9918 28.5818 46.2653 28.2379C46.5387 27.8899 46.6754 27.4839 46.6754 27.0199C46.6754 26.5973 46.5574 26.2534 46.3212 25.9883C46.085 25.7231 45.7743 25.5077 45.389 25.342C45.0037 25.1763 44.5874 25.0312 44.1399 24.907L42.5739 24.4595C41.5795 24.1737 40.7924 23.7656 40.2124 23.2353C39.6323 22.705 39.3423 22.011 39.3423 21.1534C39.3423 20.4408 39.535 19.8194 39.9203 19.2891C40.3097 18.7546 40.8317 18.3403 41.4863 18.0462C42.1451 17.7479 42.8804 17.5987 43.6925 17.5987C44.5128 17.5987 45.242 17.7458 45.88 18.0399C46.518 18.33 47.0234 18.7277 47.3963 19.2331C47.7733 19.7386 47.9722 20.3124 47.9929 20.9545H46.5014ZM51.7186 24.7578V30.5H50.252V20.9545H51.6689V22.446H51.7932C52.0169 21.9613 52.3566 21.5719 52.8124 21.2777C53.2681 20.9794 53.8564 20.8303 54.5773 20.8303C55.2236 20.8303 55.7891 20.9628 56.2738 21.228C56.7586 21.489 57.1356 21.8867 57.4049 22.4212C57.6742 22.9515 57.8088 23.6226 57.8088 24.4347V30.5H56.3422V24.5341C56.3422 23.7842 56.1475 23.2 55.758 22.7816C55.3686 22.359 54.8341 22.1477 54.1547 22.1477C53.6865 22.1477 53.2681 22.2492 52.8994 22.4522C52.5348 22.6552 52.2468 22.9515 52.0356 23.3409C51.8243 23.7303 51.7186 24.2027 51.7186 24.7578ZM60.2388 30.5V20.9545H61.7054V30.5H60.2388ZM60.9846 19.3636C60.6987 19.3636 60.4522 19.2663 60.245 19.0716C60.042 18.8768 59.9405 18.6428 59.9405 18.3693C59.9405 18.0959 60.042 17.8618 60.245 17.6671C60.4522 17.4724 60.6987 17.375 60.9846 17.375C61.2704 17.375 61.5149 17.4724 61.7179 17.6671C61.925 17.8618 62.0286 18.0959 62.0286 18.3693C62.0286 18.6428 61.925 18.8768 61.7179 19.0716C61.5149 19.2663 61.2704 19.3636 60.9846 19.3636ZM64.1416 34.0795V20.9545H65.5585V22.4709H65.7326C65.8403 22.3052 65.9894 22.0939 66.18 21.837C66.3747 21.576 66.6523 21.344 67.0127 21.141C67.3773 20.9338 67.8703 20.8303 68.4918 20.8303C69.2955 20.8303 70.004 21.0312 70.6171 21.4331C71.2303 21.8349 71.7088 22.4046 72.0527 23.142C72.3966 23.8795 72.5685 24.7495 72.5685 25.7521C72.5685 26.763 72.3966 27.6393 72.0527 28.3809C71.7088 29.1183 71.2324 29.69 70.6234 30.0961C70.0143 30.4979 69.3121 30.6989 68.5166 30.6989C67.9035 30.6989 67.4125 30.5974 67.0438 30.3944C66.6751 30.1872 66.3913 29.9531 66.1924 29.6921C65.9936 29.427 65.8403 29.2074 65.7326 29.0334H65.6083V34.0795H64.1416ZM65.5834 25.7273C65.5834 26.4482 65.6891 27.0841 65.9003 27.6351C66.1116 28.182 66.4203 28.6108 66.8263 28.9215C67.2323 29.2281 67.7295 29.3814 68.3178 29.3814C68.9309 29.3814 69.4426 29.2198 69.8528 28.8967C70.2671 28.5694 70.5778 28.1302 70.7849 27.5792C70.9962 27.024 71.1019 26.4067 71.1019 25.7273C71.1019 25.0561 70.9983 24.4512 70.7911 23.9126C70.5881 23.3699 70.2795 22.9411 69.8652 22.6262C69.455 22.3072 68.9392 22.1477 68.3178 22.1477C67.7212 22.1477 67.2199 22.2989 66.8139 22.6014C66.4079 22.8997 66.1013 23.3181 65.8941 23.8567C65.687 24.3912 65.5834 25.0147 65.5834 25.7273ZM78.1601 30.6989C77.3647 30.6989 76.6624 30.4979 76.0534 30.0961C75.4444 29.69 74.9679 29.1183 74.6241 28.3809C74.2802 27.6393 74.1083 26.763 74.1083 25.7521C74.1083 24.7495 74.2802 23.8795 74.6241 23.142C74.9679 22.4046 75.4465 21.8349 76.0596 21.4331C76.6728 21.0312 77.3812 20.8303 78.185 20.8303C78.8064 20.8303 79.2974 20.9338 79.6578 21.141C80.0224 21.344 80.3 21.576 80.4905 21.837C80.6853 22.0939 80.8365 22.3052 80.9442 22.4709H81.0685V17.7727H82.5351V30.5H81.1182V29.0334H80.9442C80.8365 29.2074 80.6832 29.427 80.4843 29.6921C80.2855 29.9531 80.0017 30.1872 79.6329 30.3944C79.2642 30.5974 78.7733 30.6989 78.1601 30.6989ZM78.359 29.3814C78.9473 29.3814 79.4444 29.2281 79.8505 28.9215C80.2565 28.6108 80.5651 28.182 80.7764 27.6351C80.9877 27.0841 81.0934 26.4482 81.0934 25.7273C81.0934 25.0147 80.9898 24.3912 80.7826 23.8567C80.5755 23.3181 80.2689 22.8997 79.8629 22.6014C79.4569 22.2989 78.9556 22.1477 78.359 22.1477C77.7375 22.1477 77.2197 22.3072 76.8054 22.6262C76.3952 22.9411 76.0865 23.3699 75.8794 23.9126C75.6764 24.4512 75.5749 25.0561 75.5749 25.7273C75.5749 26.4067 75.6785 27.024 75.8856 27.5792C76.0969 28.1302 76.4076 28.5694 76.8178 28.8967C77.2321 29.2198 77.7458 29.3814 78.359 29.3814Z" fill="white"/>
<rect x="0.5" y="0.5" width="94" height="39" rx="4.5" stroke="#A6A6A6"/>
<defs>
<linearGradient id="paint0_linear_101_7993" x1="20" y1="8" x2="20" y2="32" gradientUnits="userSpaceOnUse">
<stop stop-color="#1E2365"/>
<stop offset="1" stop-color="#020622"/>
</linearGradient>
<linearGradient id="paint1_linear_101_7993" x1="20.1322" y1="13.5312" x2="20.1322" y2="23.058" gradientUnits="userSpaceOnUse">
<stop stop-color="#A9FEE4"/>
<stop offset="1" stop-color="#0DEAA4"/>
</linearGradient>
<linearGradient id="paint2_linear_101_7993" x1="19.8679" y1="16.9419" x2="19.8679" y2="26.4687" gradientUnits="userSpaceOnUse">
<stop stop-color="#15D899"/>
<stop offset="1" stop-color="#09A472"/>
</linearGradient>
</defs>
</svg>

<svg xmlns="http://www.w3.org/2000/svg" width="95" height="40" fill="none" viewBox="0 0 95 40">
  <rect width="94" height="39" x=".5" y=".5" fill="#000" rx="4.5"/>
  <rect width="94" height="39" x=".5" y=".5" stroke="#A6A6A6" rx="4.5"/>
  <path fill="url(#a)" d="M29.082 10.918A10.4 10.4 0 0 0 21.843 8C16.081 8 11.41 12.672 11.41 18.435a10.4 10.4 0 0 0 2.918 7.238l14.755-14.754Z"/>
  <path fill="url(#b)" d="M10.918 29.082A10.4 10.4 0 0 0 18.157 32c5.762 0 10.434-4.672 10.434-10.435a10.4 10.4 0 0 0-2.918-7.238L10.919 29.082Z"/>
  <path fill="#fff" d="M39.749 14.5V8.318h.748v5.518h2.874v.664h-3.622Zm4.684 0V9.864h.713V14.5h-.713Zm.362-5.41a.506.506 0 0 1-.359-.141.456.456 0 0 1-.148-.341c0-.133.05-.247.148-.341.1-.095.22-.142.36-.142.138 0 .257.047.356.142.1.094.15.208.15.341 0 .133-.05.246-.15.341a.496.496 0 0 1-.357.142Zm4.94 1.812-.64.181c-.04-.107-.1-.21-.179-.31a.865.865 0 0 0-.313-.254 1.14 1.14 0 0 0-.51-.1c-.284 0-.52.065-.71.196-.187.129-.28.293-.28.492a.51.51 0 0 0 .192.42c.13.102.33.188.604.256l.688.17c.415.1.724.254.927.461.203.206.305.47.305.794 0 .266-.077.503-.23.713-.15.209-.362.374-.633.495a2.33 2.33 0 0 1-.948.18c-.473 0-.864-.102-1.174-.307-.31-.205-.506-.505-.589-.9l.676-.169c.065.25.186.437.365.562.182.124.418.187.71.187.332 0 .595-.07.79-.211.198-.143.296-.314.296-.514a.54.54 0 0 0-.169-.404c-.112-.11-.285-.193-.519-.248l-.773-.18c-.424-.101-.736-.257-.935-.469a1.133 1.133 0 0 1-.296-.8c0-.261.073-.493.22-.694a1.5 1.5 0 0 1 .607-.474 2.13 2.13 0 0 1 .875-.172c.46 0 .82.1 1.081.302.264.201.45.467.561.797Zm3.173-1.038v.603h-2.403v-.603h2.403Zm-1.703-1.111h.712v4.419c0 .201.03.352.088.453.06.098.137.165.23.199a.92.92 0 0 0 .298.048c.079 0 .143-.004.194-.012l.12-.024.145.64a1.491 1.491 0 0 1-.531.085c-.201 0-.399-.044-.592-.13a1.177 1.177 0 0 1-.477-.396c-.125-.177-.187-.4-.187-.67V8.753Zm4.668 5.844c-.447 0-.832-.099-1.156-.296a1.99 1.99 0 0 1-.745-.833c-.174-.358-.26-.775-.26-1.25s.086-.893.26-1.256c.175-.364.418-.648.73-.85.314-.206.68-.309 1.099-.309.241 0 .48.04.715.121.236.08.45.211.643.392.193.18.347.417.462.713.115.296.172.66.172 1.092v.302h-3.574v-.616h2.85a1.52 1.52 0 0 0-.157-.7 1.183 1.183 0 0 0-.441-.486 1.234 1.234 0 0 0-.67-.178c-.284 0-.53.07-.737.212a1.39 1.39 0 0 0-.474.543c-.11.223-.166.463-.166.718v.41c0 .35.06.648.181.891.123.242.293.426.51.553.218.124.47.187.758.187.187 0 .356-.027.507-.079.153-.054.285-.135.396-.241.11-.109.196-.244.256-.405l.689.193a1.526 1.526 0 0 1-.366.616 1.78 1.78 0 0 1-.634.41 2.35 2.35 0 0 1-.848.146Zm3.716-2.886V14.5h-.712V9.864h.688v.724h.06a1.33 1.33 0 0 1 .495-.567c.222-.145.507-.218.858-.218.313 0 .588.065.823.193.236.127.42.32.55.58.13.258.196.584.196.978V14.5h-.712v-2.898c0-.364-.095-.648-.284-.85-.19-.206-.449-.309-.779-.309-.227 0-.43.05-.61.148a1.058 1.058 0 0 0-.42.432 1.43 1.43 0 0 0-.153.688Zm8.534 2.886c-.419 0-.786-.1-1.102-.3a2.018 2.018 0 0 1-.736-.835c-.175-.358-.263-.777-.263-1.256 0-.483.088-.905.263-1.265.177-.36.422-.64.736-.839.316-.2.683-.299 1.102-.299.418 0 .785.1 1.099.3.316.198.561.478.736.838.177.36.266.782.266 1.265 0 .479-.089.898-.266 1.256-.175.358-.42.636-.736.836a2.01 2.01 0 0 1-1.1.299Zm0-.64c.318 0 .58-.082.785-.245a1.44 1.44 0 0 0 .456-.643 2.47 2.47 0 0 0 .147-.863c0-.31-.049-.599-.147-.866a1.46 1.46 0 0 0-.456-.65c-.206-.164-.467-.247-.785-.247s-.58.083-.785.248a1.46 1.46 0 0 0-.456.649 2.487 2.487 0 0 0-.148.866c0 .31.05.598.148.863.099.266.25.48.456.643.205.163.467.245.785.245Zm3.9-2.246V14.5h-.712V9.864H72v.724h.06c.11-.235.274-.424.496-.567.221-.145.507-.218.857-.218.314 0 .589.065.824.193a1.3 1.3 0 0 1 .55.58c.13.258.196.584.196.978V14.5h-.713v-2.898c0-.364-.094-.648-.284-.85-.189-.206-.448-.309-.778-.309-.228 0-.43.05-.61.148a1.059 1.059 0 0 0-.42.432 1.43 1.43 0 0 0-.154.688Zm-25.522 9.243a1.95 1.95 0 0 0-.907-1.466c-.53-.348-1.18-.522-1.951-.522-.564 0-1.057.091-1.48.273-.418.183-.745.433-.981.752a1.802 1.802 0 0 0-.348 1.088c0 .34.08.632.242.876.166.24.377.441.634.603.257.157.526.288.808.391.282.1.54.18.777.243l1.292.348c.332.087.7.207 1.106.36.41.154.802.363 1.175.628.377.26.688.597.932 1.007.245.41.367.913.367 1.51a3.35 3.35 0 0 1-.54 1.864c-.357.555-.88.997-1.567 1.324-.683.327-1.514.49-2.492.49-.911 0-1.7-.146-2.367-.44-.663-.295-1.185-.705-1.567-1.231-.377-.526-.59-1.137-.64-1.833h1.591c.042.48.203.878.485 1.193.286.31.646.543 1.081.696.44.15.912.224 1.417.224a4.17 4.17 0 0 0 1.585-.286c.468-.195.839-.464 1.112-.808a1.91 1.91 0 0 0 .41-1.218c0-.423-.118-.767-.354-1.032a2.6 2.6 0 0 0-.932-.646 9.782 9.782 0 0 0-1.25-.435l-1.565-.448c-.994-.285-1.782-.693-2.362-1.224-.58-.53-.87-1.224-.87-2.082 0-.712.193-1.334.578-1.864.39-.534.912-.949 1.566-1.243.66-.298 1.394-.447 2.207-.447.82 0 1.549.147 2.187.44.638.291 1.143.689 1.516 1.194.377.506.576 1.08.597 1.721H46.5Zm5.218 3.804V30.5h-1.467v-9.546h1.417v1.492h.124a2.726 2.726 0 0 1 1.02-1.168c.455-.299 1.043-.448 1.764-.448.647 0 1.212.133 1.697.398.485.261.862.659 1.13 1.193.27.53.405 1.202.405 2.014V30.5h-1.467v-5.966c0-.75-.194-1.334-.584-1.752-.39-.423-.924-.634-1.603-.634-.468 0-.887.101-1.256.304-.364.203-.652.5-.863.889-.212.39-.317.862-.317 1.417Zm8.52 5.742v-9.546h1.466V30.5H60.24Zm.746-11.136c-.286 0-.533-.098-.74-.292a.939.939 0 0 1-.304-.703c0-.273.101-.507.304-.702.207-.195.454-.292.74-.292.285 0 .53.097.733.292a.93.93 0 0 1 .31.702.93.93 0 0 1-.31.703 1.021 1.021 0 0 1-.733.292Zm3.157 14.716V20.955h1.416v1.516h.175c.107-.166.256-.377.447-.634.195-.261.472-.493.833-.696.364-.207.857-.31 1.479-.31.803 0 1.512.2 2.125.602.613.402 1.092.972 1.436 1.709.344.738.516 1.608.516 2.61 0 1.011-.172 1.887-.516 2.629-.344.737-.82 1.309-1.43 1.715-.609.402-1.31.603-2.106.603-.614 0-1.105-.102-1.473-.305-.369-.207-.653-.44-.852-.702a9.407 9.407 0 0 1-.46-.659h-.124v5.047h-1.466Zm1.441-8.353c0 .721.106 1.357.317 1.908.212.547.52.976.926 1.287.406.306.904.46 1.492.46.613 0 1.125-.162 1.535-.485.414-.328.725-.767.932-1.318a5.17 5.17 0 0 0 .317-1.852c0-.67-.104-1.276-.31-1.814-.204-.543-.513-.972-.927-1.287-.41-.319-.926-.478-1.547-.478-.597 0-1.098.15-1.504.453-.406.299-.713.717-.92 1.256-.207.534-.31 1.158-.31 1.87ZM78.16 30.7c-.795 0-1.498-.201-2.107-.603-.609-.406-1.085-.978-1.429-1.715-.344-.742-.516-1.618-.516-2.629 0-1.002.172-1.872.516-2.61.344-.737.823-1.307 1.436-1.709.613-.402 1.321-.603 2.125-.603.621 0 1.112.104 1.473.311.364.203.642.435.832.696.195.257.347.468.454.634h.124v-4.698h1.467V30.5h-1.417v-1.467h-.174a9.38 9.38 0 0 1-.46.66c-.198.26-.482.494-.851.701-.369.203-.86.305-1.473.305Zm.199-1.318c.588 0 1.085-.153 1.492-.46.406-.31.714-.739.925-1.286.212-.55.317-1.187.317-1.908 0-.712-.103-1.336-.31-1.87-.207-.539-.514-.957-.92-1.256-.406-.302-.907-.453-1.504-.453-.621 0-1.14.16-1.554.478-.41.315-.719.744-.926 1.287-.203.538-.304 1.143-.304 1.814 0 .68.103 1.297.31 1.852.212.551.523.99.933 1.318.414.323.928.484 1.541.484Z"/>
  <defs>
    <linearGradient id="a" x1="20.245" x2="20.245" y1="8" y2="25.673" gradientUnits="userSpaceOnUse">
      <stop stop-color="#A9FEE4"/>
      <stop offset="1" stop-color="#0DEAA4"/>
    </linearGradient>
    <linearGradient id="b" x1="19.755" x2="19.755" y1="14.327" y2="32" gradientUnits="userSpaceOnUse">
      <stop stop-color="#15D899"/>
      <stop offset="1" stop-color="#09A472"/>
    </linearGradient>
  </defs>
</svg>
